flaticon/fitness/beverage.svg

<svg xmlns="http://www.w3.org/2000/svg" width="32" height="32" viewBox="0 0 24 24">
    <path d="M 18.800781 6 C 18.800781 5.339844 18.394531 4.773438 17.824219 4.527344 C 17.140625 1.886719 14.722656 0 12 0 C 9.242188 0 6.859375 1.886719 6.175781 4.527344 C 5.601562 4.773438 5.199219 5.339844 5.199219 6 C 5.199219 6.609375 5.546875 7.144531 6.050781 7.414062 L 6.222656 11.0625 C 6.207031 11.105469 6.199219 11.148438 6.199219 11.199219 L 6.601562 19.601562 C 6.601562 19.65625 6.609375 19.707031 6.628906 19.75 L 6.71875 21.679688 C 6.761719 23 7.839844 24 9.121094 24 L 14.878906 24 C 16.160156 24 17.238281 23 17.28125 21.679688 L 17.949219 7.414062 C 18.453125 7.144531 18.800781 6.609375 18.800781 6 Z M 12 0.800781 C 14.238281 0.800781 16.238281 2.28125 16.921875 4.398438 L 7.039062 4.398438 C 7.71875 2.28125 9.71875 0.800781 12 0.800781 Z M 16.972656 10.800781 L 7.027344 10.800781 L 6.878906 7.601562 L 17.121094 7.601562 Z M 16.589844 19.199219 L 7.410156 19.199219 L 7.0625 11.601562 L 16.9375 11.601562 Z M 16.480469 21.640625 C 16.441406 22.519531 15.761719 23.199219 14.878906 23.199219 L 9.121094 23.199219 C 8.28125 23.199219 7.558594 22.519531 7.519531 21.640625 L 7.445312 20 L 16.554688 20 Z M 17.464844 6.753906 C 17.457031 6.753906 17.449219 6.757812 17.441406 6.761719 C 17.433594 6.761719 17.429688 6.765625 17.421875 6.769531 C 17.351562 6.789062 17.277344 6.800781 17.199219 6.800781 L 6.800781 6.800781 C 6.722656 6.800781 6.648438 6.789062 6.578125 6.769531 C 6.570312 6.765625 6.566406 6.761719 6.558594 6.761719 C 6.550781 6.757812 6.542969 6.753906 6.535156 6.753906 C 6.226562 6.644531 6 6.347656 6 6 C 6 5.644531 6.234375 5.34375 6.550781 5.238281 C 6.578125 5.238281 6.601562 5.238281 6.601562 5.238281 C 6.644531 5.21875 6.6875 5.207031 6.726562 5.203125 C 6.75 5.203125 6.773438 5.199219 6.800781 5.199219 L 17.199219 5.199219 C 17.226562 5.199219 17.25 5.203125 17.273438 5.203125 C 17.3125 5.207031 17.355469 5.21875 17.398438 5.238281 C 17.414062 5.238281 17.429688 5.238281 17.441406 5.238281 C 17.765625 5.339844 18 5.644531 18 6 C 18 6.347656 17.773438 6.644531 17.464844 6.753906 Z M 17.464844 6.753906"/>
    <path d="M 10.039062 15.398438 C 10.078125 15.558594 10.238281 15.640625 10.398438 15.640625 L 12.71875 15.640625 L 10.878906 17.761719 C 10.71875 17.921875 10.761719 18.160156 10.921875 18.320312 C 11 18.359375 11.121094 18.398438 11.199219 18.398438 C 11.320312 18.398438 11.441406 18.359375 11.519531 18.28125 L 13.921875 15.480469 C 14 15.359375 14.039062 15.199219 13.960938 15.039062 C 13.878906 14.878906 13.761719 14.800781 13.601562 14.800781 L 11.359375 14.800781 L 13.078125 13.121094 C 13.238281 12.960938 13.238281 12.71875 13.078125 12.558594 C 12.921875 12.398438 12.679688 12.398438 12.519531 12.558594 L 10.121094 14.960938 C 10 15.078125 10 15.238281 10.039062 15.398438 Z M 10.039062 15.398438"/>
</svg>

<svg xmlns="http://www.w3.org/2000/svg" width="32" height="32" viewBox="0 0 24 24">
    <path d="M18.8 6a1.61 1.61 0 0 0-.976-1.473C17.141 1.887 14.723 0 12 0 9.242 0 6.86 1.887 6.176 4.527A1.604 1.604 0 0 0 5.199 6c0 .61.348 1.145.852 1.414l.172 3.649a.386.386 0 0 0-.024.136l.403 8.403a.36.36 0 0 0 .027.148l.09 1.93A2.394 2.394 0 0 0 9.12 24h5.758c1.281 0 2.36-1 2.402-2.32l.668-14.266A1.61 1.61 0 0 0 18.801 6zM12 .8c2.238 0 4.238 1.481 4.922 3.598H7.039A5.214 5.214 0 0 1 12 .801zm4.973 10H7.027L6.88 7.603H17.12zm-.383 8.4H7.41l-.348-7.598h9.875zm-.11 2.44c-.039.88-.718 1.56-1.601 1.56H9.12c-.84 0-1.562-.68-1.601-1.56L7.445 20h9.11zm.985-14.886a.056.056 0 0 0-.024.008c-.007 0-.011.004-.02.008a.829.829 0 0 1-.222.03H6.801a.829.829 0 0 1-.223-.03c-.008-.004-.012-.008-.02-.008A.804.804 0 0 1 6 6c.001-.355.235-.656.552-.762h.05a.404.404 0 0 1 .126-.035c.023 0 .046-.004.074-.004h10.398c.028 0 .051.004.074.004.04.004.082.016.125.035h.043a.8.8 0 0 1 .024 1.516zm0 0"/>
    <path d="M10.04 15.398c.038.16.198.243.358.243h2.32l-1.84 2.12c-.16.16-.116.4.044.56.078.038.2.077.277.077.121 0 .242-.039.32-.117l2.403-2.8a.44.44 0 0 0 .039-.442c-.082-.16-.2-.238-.36-.238H11.36l1.72-1.68a.39.39 0 0 0 0-.562.385.385 0 0 0-.56 0l-2.398 2.402c-.121.117-.121.277-.082.437zm0 0"/>
</svg>
